Stemford/img/sections/tehnology/icon/loptop.svg

<svg width="40" height="43" viewBox="0 0 40 43" fill="none" xmlns="http://www.w3.org/2000/svg">
<rect x="24" width="16" height="16.8" fill="#FF843F"/>
<path d="M33.7535 43H2.24649C1.01092 43 0 41.9878 0 40.7507L0.0112324 40.582L2.24649 26.2315V9.2493C2.24649 8.01218 3.25741 7 4.49298 7H31.507C32.7426 7 33.7535 8.01218 33.7535 9.2493V26.2315L36 40.7507C36 41.9878 35.0003 43 33.7535 43ZM2.25772 40.7507H33.7423L31.507 26.3215V9.2493H4.49298L4.48175 26.4902L2.25772 40.7507Z" fill="#200B73"/>
<path d="M27.0253 31.7535H24.7788V29.5042H27.0253V31.7535ZM22.5323 31.7535H20.2858V29.5042H22.5323V31.7535ZM18.0393 31.7535H15.7928V29.5042H18.0393V31.7535ZM13.5464 31.7535H11.2999V29.5042H13.5464V31.7535ZM9.05338 31.7535H6.80688V29.5042H9.05338V31.7535Z" fill="#200B73"/>
<path d="M23.6555 43H12.4231V36.2521H23.6555V43ZM14.6696 40.7507H21.4091V38.5014H14.6696V40.7507Z" fill="#200B73"/>
<path d="M32.6415 25.0056H2.31384V27.2549H32.6415V25.0056Z" fill="#200B73"/>
<path d="M29.2718 34.0028H27.0253V31.7535H29.2718V34.0028ZM24.7788 34.0028H22.5323V31.7535H24.7788V34.0028ZM20.2858 34.0028H18.0393V31.7535H20.2858V34.0028ZM15.7928 34.0028H13.5463V31.7535H15.7928V34.0028ZM11.2998 34.0028H9.05334V31.7535H11.2998V34.0028Z" fill="#200B73"/>
<path d="M18.0505 13.7592C17.9045 13.7592 17.7584 13.7254 17.6237 13.6692C17.4776 13.6129 17.3541 13.5342 17.253 13.433C17.0508 13.2193 16.9272 12.9269 16.9272 12.6345C16.9272 12.4883 16.9497 12.3421 17.0171 12.2071C17.0733 12.0609 17.1519 11.9372 17.253 11.836C17.3541 11.7348 17.4776 11.6561 17.6237 11.5998C17.8258 11.5099 18.0505 11.4874 18.2639 11.5324C18.3425 11.5436 18.4099 11.5661 18.4773 11.5998C18.5447 11.6223 18.6121 11.6561 18.6683 11.701C18.7357 11.7348 18.7918 11.791 18.848 11.836C18.9491 11.9372 19.0277 12.0609 19.0839 12.2071C19.14 12.3421 19.1737 12.4883 19.1737 12.6345C19.1737 12.9269 19.0502 13.2193 18.848 13.433C18.7918 13.478 18.7357 13.523 18.6683 13.568C18.6121 13.6129 18.5447 13.6467 18.4773 13.6692C18.4099 13.7029 18.3425 13.7254 18.2639 13.7367C18.1853 13.7479 18.1067 13.7592 18.0505 13.7592Z" fill="#200B73"/>
</svg>

<svg width="40" height="43" fill="none" xmlns="http://www.w3.org/2000/svg"><path fill="#FF843F" d="M24 0h16v16.8H24z"/><path d="M33.754 43H2.246A2.255 2.255 0 010 40.75l.011-.168 2.235-14.35V9.248A2.254 2.254 0 014.493 7h27.014a2.254 2.254 0 012.247 2.25v16.98L36 40.751C36 41.988 35 43 33.754 43zM2.258 40.75h31.484l-2.235-14.428V9.248H4.493L4.482 26.49 2.258 40.75z" fill="#200B73"/><path d="M27.025 31.753H24.78v-2.249h2.246v2.25zm-4.493 0h-2.246v-2.249h2.246v2.25zm-4.493 0h-2.246v-2.249h2.246v2.25zm-4.493 0H11.3v-2.249h2.246v2.25zm-4.493 0H6.807v-2.249h2.246v2.25zM23.655 43H12.424v-6.748h11.232V43zm-8.985-2.25h6.74v-2.249h-6.74v2.25zm17.972-15.744H2.314v2.249h30.328v-2.25z" fill="#200B73"/><path d="M29.272 34.003h-2.247v-2.25h2.247v2.25zm-4.493 0h-2.247v-2.25h2.247v2.25zm-4.493 0h-2.247v-2.25h2.247v2.25zm-4.493 0h-2.247v-2.25h2.247v2.25zm-4.493 0H9.053v-2.25H11.3v2.25zm6.75-20.243c-.146 0-.292-.035-.426-.09a1.049 1.049 0 01-.371-.237 1.183 1.183 0 01-.326-.799c0-.146.023-.292.09-.427a1.05 1.05 0 01.236-.371c.101-.101.225-.18.37-.236.203-.09.427-.113.64-.068a.677.677 0 01.214.068.627.627 0 01.191.101c.068.034.124.09.18.135.101.101.18.225.236.371.056.135.09.281.09.427 0 .293-.124.585-.326.799-.056.045-.112.09-.18.135a.627.627 0 01-.19.101.68.68 0 01-.214.068c-.079.01-.157.022-.213.022z" fill="#200B73"/></svg>
